src/assets/tulip/staked_card.svg

<svg width="50" height="50" viewBox="0 0 50 50" fill="none" xmlns="http://www.w3.org/2000/svg">
<circle cx="25" cy="25" r="25" fill="url(#paint0_linear)"/>
<path fill-rule="evenodd" clip-rule="evenodd" d="M25 11C25.5523 11 26 11.4477 26 12V17.5858L26.2929 17.2929C26.6834 16.9024 27.3166 16.9024 27.7071 17.2929C28.0976 17.6834 28.0976 18.3166 27.7071 18.7071L25.7071 20.7071C25.3166 21.0976 24.6834 21.0976 24.2929 20.7071L22.2929 18.7071C21.9024 18.3166 21.9024 17.6834 22.2929 17.2929C22.6834 16.9024 23.3166 16.9024 23.7071 17.2929L24 17.5858V12C24 11.4477 24.4477 11 25 11ZM14 17.8185C14 17.2662 14.4477 16.8185 15 16.8185H17C18.6568 16.8185 20 18.1616 20 19.8185V24.0858L20.2929 23.7929C20.6834 23.4024 21.3166 23.4024 21.7071 23.7929C22.0976 24.1834 22.0976 24.8166 21.7071 25.2071L19.7071 27.2071C19.3166 27.5976 18.6834 27.5976 18.2929 27.2071L16.2929 25.2071C15.9024 24.8166 15.9024 24.1834 16.2929 23.7929C16.6834 23.4024 17.3166 23.4024 17.7071 23.7929L18 24.0858V19.8185C18 19.2662 17.5523 18.8185 17 18.8185H15C14.4477 18.8185 14 18.3708 14 17.8185ZM33 18.8185C32.4477 18.8185 32 19.2662 32 19.8185V24.0858L32.2929 23.7929C32.6834 23.4024 33.3166 23.4024 33.7071 23.7929C34.0976 24.1834 34.0976 24.8166 33.7071 25.2071L31.7071 27.2071C31.3166 27.5976 30.6834 27.5976 30.2929 27.2071L28.2929 25.2071C27.9024 24.8166 27.9024 24.1834 28.2929 23.7929C28.6834 23.4024 29.3166 23.4024 29.7071 23.7929L30 24.0858V19.8185C30 18.1616 31.3432 16.8185 33 16.8185H35C35.5523 16.8185 36 17.2662 36 17.8185C36 18.3708 35.5523 18.8185 35 18.8185H33ZM15 27C15.5523 27 16 27.4477 16 28V30C16 30.5523 16.4477 31 17 31H33C33.5523 31 34 30.5523 34 30V28C34 27.4477 34.4477 27 35 27C35.5523 27 36 27.4477 36 28V30C36 31.6568 34.6568 33 33 33H17C15.3431 33 14 31.6568 14 30V28C14 27.4477 14.4477 27 15 27Z" fill="#2C3437" fill-opacity="0.8"/>
<defs>
<linearGradient id="paint0_linear" x1="50" y1="-1.09139e-05" x2="-1.24642" y2="1.3119" gradientUnits="userSpaceOnUse">
<stop stop-color="#AAF5D4"/>
<stop offset="1" stop-color="#7CE0D6"/>
</linearGradient>
</defs>
</svg>

<svg width="50" height="50" fill="none" xmlns="http://www.w3.org/2000/svg"><circle cx="25" cy="25" r="25" fill="url(#paint0_linear)"/><path fill-rule="evenodd" clip-rule="evenodd" d="M25 11a1 1 0 011 1v5.586l.293-.293a1 1 0 011.414 1.414l-2 2a1 1 0 01-1.414 0l-2-2a1 1 0 011.414-1.414l.293.293V12a1 1 0 011-1zm-11 6.819a1 1 0 011-1h2a3 3 0 013 3v4.267l.293-.293a1 1 0 011.414 1.414l-2 2a1 1 0 01-1.414 0l-2-2a1 1 0 011.414-1.414l.293.293v-4.267a1 1 0 00-1-1h-2a1 1 0 01-1-1zm19 1a1 1 0 00-1 1v4.267l.293-.293a1 1 0 011.414 1.414l-2 2a1 1 0 01-1.414 0l-2-2a1 1 0 011.414-1.414l.293.293v-4.267a3 3 0 013-3h2a1 1 0 110 2h-2zM15 27a1 1 0 011 1v2a1 1 0 001 1h16a1 1 0 001-1v-2a1 1 0 112 0v2a3 3 0 01-3 3H17a3 3 0 01-3-3v-2a1 1 0 011-1z" fill="#2C3437" fill-opacity=".8"/><defs><linearGradient id="paint0_linear" x1="50" y1="0" x2="-1.246" y2="1.312" gradientUnits="userSpaceOnUse"><stop stop-color="#AAF5D4"/><stop offset="1" stop-color="#7CE0D6"/></linearGradient></defs></svg>
